X:1
T:Title
%%score { 1 | 2 }
L:1/8
M:4/4
K:E
V:1 treble nm="Grand Piano"
V:2 bass 
V:1
 z4[Q:1/4=92] B,E E>E | E3 G [EG][DF] [DF]>[DF] | [DF]4 D[DF] [DF]>[DF] | %3
 [FA]3 [FA] [Ac][GB] [GB]>[GB] | [GB]4 EG G>[GB] | [GB]3 [Ge] ec [EAc]>[EAc] | %6
 [EAc]3 [EAc] [EGB]2 [EGB]>[EAc] | [EGB]3 [CFA] [EG]2 [DF]>E |[M:2/4] E4 | B,E E>E | %10
[M:4/4] E3 G [EG][DF] [DF]>[DF] | [DF]4 D[DF] [DF]>[DF] | [FA]3 [FA] [Ac][GB] [GB]>[GB] | %13
 [GB]4 EG G>[GB] | [GB]3 [Ge] ec [EAc]>[EAc] | [EAc]3 [EAc] [EGB]2 [EGB]>[EAc] | %16
 [EGB]3 [CFA] [EG]2 [DF]>E |[M:2/4] E .E3 |] %18
V:2
 z4 E,[E,G,B,] [E,G,B,]>[E,G,B,] | [E,G,B,]3 [E,B,E] [B,,B,]2 [B,,B,]>[B,,B,] | %2
 [B,,B,]4 [B,,B,][B,,B,] [B,,B,]>[B,,B,] | [B,,B,]3 [B,,B,] [B,,B,]2 [E,B,]>[E,E] | %4
 [E,E]4 [E,G,][E,B,E] [E,B,E]>[E,B,] | [E,B,]3 [E,B,] [A,,CA]2 A,,>A,, | A,,3 A,, E,2 E,>E, | %7
 E,3 A,, [B,,B,]2 [B,,A,]>[B,,G,] |[M:2/4] [E,G,]4 | E,[E,G,B,] [E,G,B,]>[E,G,B,] | %10
[M:4/4] [E,G,B,]3 [E,B,E] [B,,B,]2 [B,,B,]>[B,,B,] | [B,,B,]4 [B,,B,][B,,B,] [B,,B,]>[B,,B,] | %12
 [B,,B,]3 [B,,B,] [B,,B,]2 [E,B,]>[E,E] | [E,E]4 [E,G,][E,B,E] [E,B,E]>[E,B,] | %14
 [E,B,]3 [E,B,] [A,,CA]2 A,,>A,, | A,,3 A,, E,2 E,>E, | E,3 A,, [B,,B,]2 [B,,A,]>[B,,G,] | %17
[M:2/4] [E,G,] .[E,G,]3 |] %18

